X: 4
T: The Ivy Leaf
R: reel
M: 4/4
L: 1/8
K: Amix
|: ~A2 eA cAec | Acec dBGB | ~A2 eA cAec | d2 BG EFGE |~A2 eA cAec | Acec dBGB | Aced cBcA | BEED EFGE :||: eaag edcd | effe BA G2 | eaag edcA | BEED EFGE |eaag edcd | effe BAGB | ~A3 B =cBcd | egfa gedB :||: Aced cAec | Acec dBGB | Aced cAed | BEEF GABG :|ea a2 caea | Bg g2 dgBg | ea a2 caec | BEEF GABG |ea a2 caea | Bg g2 dgBg | afge fdec | BEEF GABG |]


Tune 1112	Setting 14362

